X: 1028
T:Thomas Booker Jigg
M:6/8
L:1/8
S:Armitt MS
N:1.  This note illegible
K:G major
G2BA2c|B2g gfe|d2cB2A|ABA F2D|G2BA2c|B2g gf"1"e|d2cB2A|G3G2:||:c2AB2G|AB
A F2D|C2EB,2D|A,2DG,3|c2AB2G|ABA F2D|E2B cAF|G3G3||
